images/Client6.svg

<svg width="89" height="45" viewBox="0 0 89 45" fill="none" xmlns="http://www.w3.org/2000/svg">
<path d="M44.7405 20.6885C44.3226 20.0973 44.1226 19.3987 44.1701 18.6954V15.8056C44.1701 14.9198 44.3592 14.2466 44.7373 13.7861C45.1155 13.3255 45.7651 13.0962 46.686 13.0982C47.5513 13.0982 48.1656 13.2941 48.5288 13.6861C48.925 14.1862 49.1178 14.7978 49.0736 15.4147V16.0937H47.5256V15.4058C47.5311 15.1807 47.5161 14.9555 47.4808 14.7326C47.4585 14.5803 47.3806 14.4393 47.2596 14.3328C47.1007 14.2181 46.9004 14.1624 46.6988 14.177C46.4867 14.1625 46.2764 14.2212 46.1091 14.3417C45.9742 14.4596 45.8844 14.6142 45.8527 14.7826C45.8083 15.0185 45.7879 15.2576 45.7918 15.497V19.0041C45.7674 19.3424 45.8357 19.6809 45.9905 19.9889C46.0675 20.093 46.1744 20.1756 46.2994 20.2275C46.4244 20.2794 46.5626 20.2985 46.6988 20.2828C46.8971 20.2978 47.0939 20.2408 47.2468 20.1241C47.373 20.0093 47.4541 19.8594 47.4776 19.6978C47.5137 19.4652 47.5298 19.2302 47.5256 18.9952V18.2838H49.0736V18.9335C49.1171 19.5765 48.929 20.2148 48.5384 20.7502C48.1827 21.1794 47.5769 21.394 46.686 21.394C45.795 21.394 45.1219 21.1647 44.7405 20.6885Z" fill="#AFB1B8"/>
<path d="M51.1857 20.7179C50.7947 20.2681 50.5992 19.6126 50.5992 18.7454V15.7057C50.5992 14.8473 50.7947 14.1976 51.1857 13.7567C51.5767 13.3157 52.2305 13.0962 53.1471 13.0982C54.0573 13.0982 54.7079 13.3177 55.0989 13.7567C55.4899 14.1976 55.6886 14.8473 55.6886 15.7057V18.7454C55.6886 19.6038 55.4899 20.2623 55.0925 20.715C54.6951 21.1677 54.0477 21.394 53.1471 21.394C52.2466 21.394 51.5799 21.1647 51.1857 20.7179ZM53.8682 19.9889C54.0083 19.7071 54.072 19.3985 54.0541 19.0893V15.3676C54.0721 15.0644 54.0094 14.7617 53.8714 14.4857C53.7929 14.3793 53.6833 14.2954 53.5553 14.2434C53.4272 14.1914 53.2858 14.1735 53.1471 14.1917C53.0081 14.174 52.8664 14.1921 52.7379 14.244C52.6094 14.2959 52.4992 14.3796 52.4196 14.4857C52.2787 14.7609 52.2148 15.064 52.2337 15.3676V19.1069C52.2143 19.4162 52.2781 19.7252 52.4196 20.0065C52.5099 20.1013 52.6212 20.1773 52.7461 20.2294C52.8711 20.2815 53.0067 20.3084 53.1439 20.3084C53.2812 20.3084 53.4168 20.2815 53.5417 20.2294C53.6666 20.1773 53.778 20.1013 53.8682 20.0065V19.9889Z" fill="#AFB1B8"/>
<path d="M57.5505 13.1868H59.2171L60.4702 18.795L61.7522 13.1868H63.3739L63.5374 21.2817H62.3387L62.2105 15.6558L60.9734 21.2817H60.0119L58.7299 15.6352L58.6114 21.2817H57.3999L57.5505 13.1868Z" fill="#AFB1B8"/>
<path d="M65.4059 13.1868H68.0018C69.4974 13.1868 70.2452 13.953 70.2452 15.4853C70.2452 16.9531 69.4579 17.6859 67.8832 17.684H66.9987V21.2817H65.3962L65.4059 13.1868ZM67.6236 16.6464C67.782 16.6648 67.9428 16.6515 68.0949 16.6073C68.2471 16.5632 68.387 16.4893 68.505 16.3907C68.6887 16.1173 68.7698 15.7962 68.7357 15.4765C68.7441 15.2296 68.7183 14.9827 68.6588 14.7417C68.636 14.6612 68.5959 14.5857 68.5408 14.5196C68.4858 14.4535 68.417 14.3981 68.3383 14.3566C68.1159 14.2588 67.87 14.2143 67.6236 14.2273H67.0019V16.6464H67.6236Z" fill="#AFB1B8"/>
<path d="M72.5561 13.1868H74.2771L76.043 21.2817H74.5495L74.2002 19.4153H72.665L72.3061 21.2817H70.7902L72.5561 13.1868ZM74.0271 18.4776L73.4278 15.0797L72.8285 18.4776H74.0271Z" fill="#AFB1B8"/>
<path d="M77.4691 13.1868H78.5909L80.7382 17.8045V13.1868H82.0682V21.2817H81.001L78.8409 16.4612V21.2817H77.4659L77.4691 13.1868Z" fill="#AFB1B8"/>
<path d="M85.1834 18.1954L83.3983 13.1985H84.9014L85.9911 16.4083L87.0134 13.1985H88.4845L86.7218 18.1954V21.2817H85.1834V18.1954Z" fill="#AFB1B8"/>
<path d="M47.2148 24.8213V25.2446H45.9072V28.5339H45.3592V25.2446H44.0452V24.8213H47.2148Z" fill="#AFB1B8"/>
<path d="M51.3138 28.5342H50.8908C50.8478 28.5366 50.8054 28.524 50.7722 28.4989C50.7402 28.4774 50.7157 28.4477 50.7017 28.4137L50.3235 27.5318H48.5095L48.1313 28.4137C48.1206 28.4505 48.1008 28.4847 48.0736 28.5136C48.0401 28.5382 47.9979 28.5508 47.955 28.5489H47.532L49.1345 24.8362H49.6921L51.3138 28.5342ZM48.6601 27.1555H50.1729L49.5319 25.6446C49.4846 25.5303 49.445 25.4135 49.4133 25.2948C49.3909 25.3653 49.3716 25.4329 49.3524 25.4917L49.2947 25.6475L48.6601 27.1555Z" fill="#AFB1B8"/>
<path d="M54.0765 28.1694C54.1769 28.1743 54.2774 28.1743 54.3778 28.1694C54.4644 28.1612 54.5502 28.1465 54.6342 28.1253C54.7127 28.1077 54.7898 28.0851 54.8649 28.0577C54.9354 28.0313 55.0059 27.9989 55.0797 27.9666V27.1317H54.4387C54.4228 27.1325 54.407 27.1303 54.3921 27.1253C54.3772 27.1202 54.3636 27.1124 54.3521 27.1023C54.3416 27.0939 54.3333 27.0835 54.3277 27.0718C54.3222 27.0601 54.3196 27.0474 54.3201 27.0347V26.7495H55.5636V28.1724C55.4621 28.239 55.3549 28.298 55.2431 28.3488C55.1288 28.4005 55.0098 28.4428 54.8874 28.4752C54.7563 28.5105 54.6223 28.5361 54.4867 28.5516C54.3314 28.5674 54.1752 28.5753 54.0188 28.5751C53.7424 28.5773 53.4682 28.5303 53.2112 28.437C52.9712 28.3485 52.7532 28.2165 52.5702 28.0489C52.3918 27.8796 52.2513 27.6799 52.1568 27.461C52.0557 27.2149 52.0057 26.9537 52.0093 26.6907C52.006 26.4262 52.0548 26.1632 52.1536 25.9146C52.2457 25.6946 52.3865 25.4944 52.567 25.3267C52.7499 25.1597 52.968 25.0286 53.208 24.9416C53.4824 24.8469 53.7737 24.8 54.0669 24.8034C54.2161 24.8032 54.3651 24.814 54.5124 24.8357C54.6426 24.8552 54.7704 24.8867 54.8938 24.9298C55.0059 24.9684 55.1133 25.0177 55.2143 25.0768C55.3125 25.1348 55.4057 25.1997 55.4931 25.2708L55.3393 25.5001C55.3272 25.5211 55.3093 25.5387 55.2873 25.5511C55.2653 25.5635 55.2401 25.5703 55.2143 25.5707C55.1788 25.5696 55.1444 25.5594 55.1149 25.5413C55.0668 25.5178 55.0156 25.4884 54.9579 25.4531C54.8897 25.4139 54.8179 25.3804 54.7431 25.3531C54.6476 25.318 54.549 25.2905 54.4483 25.2708C54.314 25.2481 54.1777 25.2373 54.0413 25.2385C53.8298 25.2363 53.6199 25.2713 53.4227 25.3414C53.2444 25.407 53.0836 25.5073 52.9516 25.6354C52.8188 25.7688 52.7173 25.9259 52.6535 26.0969C52.5103 26.499 52.5103 26.9324 52.6535 27.3345C52.7237 27.5091 52.8328 27.6684 52.974 27.802C53.1055 27.9293 53.265 28.0295 53.4419 28.0959C53.6457 28.1601 53.8617 28.1851 54.0765 28.1694Z" fill="#AFB1B8"/>
<path d="M59.1851 28.1106H60.9351V28.5339H58.6499V24.8213H59.198L59.1851 28.1106Z" fill="#AFB1B8"/>
<path d="M62.7555 28.5339H62.2074V24.8213H62.7555V28.5339Z" fill="#AFB1B8"/>
<path d="M64.7938 24.8387C64.8263 24.8558 64.8547 24.8788 64.8771 24.9063L67.2199 27.705C67.2167 27.6609 67.2167 27.6167 67.2199 27.5727C67.2199 27.5315 67.2199 27.4904 67.2199 27.4522V24.8064H67.6974V28.534H67.4218C67.3809 28.537 67.34 28.5299 67.3032 28.5134C67.2699 28.4949 67.2406 28.471 67.2167 28.4428L64.8771 25.6472C64.8771 25.6913 64.8771 25.7324 64.8771 25.7736C64.8771 25.8147 64.8771 25.8529 64.8771 25.8882V28.534H64.4188V24.8211H64.7041C64.735 24.8212 64.7656 24.8272 64.7938 24.8387Z" fill="#AFB1B8"/>
<path d="M71.7324 24.8213V25.2299H69.7903V26.4557H71.3639V26.8496H69.7903V28.1165H71.7324V28.5251H69.2262V24.8213H71.7324Z" fill="#AFB1B8"/>
<path d="M14.3035 1.89306L38.6385 8.23072V30.439L14.3035 24.1042V1.89306ZM12.7427 0V25.1831L40.1961 32.335V7.15485L12.7427 0Z" fill="#AFB1B8"/>
<path d="M27.4565 44.0251L0 36.8674V11.6873L27.4565 18.8421V44.0251Z" fill="#AFB1B8"/>
<path d="M13.1978 1.60791L37.2155 7.86614L27.0014 17.2373L2.98057 10.9761L13.1978 1.60791ZM12.7427 0L0 11.6875L27.4565 18.8423L40.196 7.15478L12.7427 0Z" fill="#AFB1B8"/>
<path d="M29.0013 42.6084L40.196 32.338L29.0013 29.4192V42.6084Z" fill="#AFB1B8"/>
</svg>

<svg width="89" height="45" fill="none" xmlns="http://www.w3.org/2000/svg"><path d="M44.74 20.689a3.085 3.085 0 01-.57-1.994v-2.89c0-.885.19-1.558.567-2.019.378-.46 1.028-.69 1.949-.688.865 0 1.48.196 1.843.588.396.5.589 1.112.545 1.729v.679h-1.548v-.688c.005-.225-.01-.45-.045-.673a.661.661 0 00-.221-.4.856.856 0 00-.561-.156.906.906 0 00-.59.165.778.778 0 00-.256.44 3.548 3.548 0 00-.061.715v3.507c-.025.338.044.677.198.985a.732.732 0 00.31.238.804.804 0 00.399.056.806.806 0 00.548-.159.717.717 0 00.23-.426c.037-.233.053-.468.049-.703v-.711h1.548v.65a2.76 2.76 0 01-.536 1.816c-.355.43-.961.644-1.852.644-.891 0-1.564-.23-1.946-.705zM51.186 20.718c-.391-.45-.587-1.105-.587-1.973v-3.04c0-.858.196-1.507.587-1.948.39-.441 1.044-.66 1.961-.659.91 0 1.56.22 1.952.659.39.44.59 1.09.59 1.949v3.04c0 .858-.2 1.516-.596 1.969-.398.453-1.045.679-1.946.679-.9 0-1.567-.23-1.961-.676zm2.682-.73c.14-.28.204-.59.186-.899v-3.721a1.738 1.738 0 00-.183-.882.735.735 0 00-.316-.243.808.808 0 00-.408-.051.82.82 0 00-.41.052.746.746 0 00-.317.242 1.7 1.7 0 00-.186.882v3.739c-.02.31.044.618.186.9.09.094.201.17.326.222a1.035 1.035 0 00.796 0 .96.96 0 00.326-.223v-.017zM57.55 13.187h1.667l1.253 5.608 1.282-5.608h1.622l.163 8.095H62.34l-.128-5.626-1.238 5.626h-.961l-1.282-5.647-.119 5.647H57.4l.15-8.095zM65.406 13.187h2.596c1.495 0 2.243.766 2.243 2.298 0 1.468-.787 2.2-2.362 2.199H67v3.598h-1.603l.01-8.095zm2.218 3.46c.158.018.319.005.47-.04a1.13 1.13 0 00.411-.216c.184-.274.265-.595.23-.914a2.683 2.683 0 00-.076-.735.604.604 0 00-.118-.222.668.668 0 00-.203-.163 1.573 1.573 0 00-.714-.13h-.622v2.42h.622zM72.556 13.187h1.721l1.766 8.095h-1.494l-.349-1.867h-1.535l-.359 1.867H70.79l1.766-8.095zm1.471 5.29l-.6-3.397-.599 3.398h1.2zM77.47 13.187h1.12l2.148 4.618v-4.618h1.33v8.095h-1.067l-2.16-4.82v4.82h-1.375l.003-8.095zM85.183 18.195l-1.785-4.997h1.503l1.09 3.21 1.022-3.21h1.471l-1.762 4.997v3.087h-1.539v-3.087zM47.215 24.821v.424h-1.308v3.289h-.548v-3.29h-1.314v-.423h3.17zM51.314 28.534h-.423a.18.18 0 01-.119-.035.19.19 0 01-.07-.085l-.378-.882H48.51l-.379.882a.247.247 0 01-.057.1.187.187 0 01-.119.035h-.423l1.603-3.713h.557l1.622 3.698zm-2.654-1.378h1.513l-.641-1.511a2.812 2.812 0 01-.119-.35l-.06.197-.058.155-.635 1.509zM54.077 28.17c.1.004.2.004.3 0 .087-.009.173-.024.257-.045.079-.017.156-.04.23-.067.071-.027.142-.06.216-.091v-.835h-.641a.119.119 0 01-.111-.06.08.08 0 01-.008-.037v-.285h1.244v1.422a2.375 2.375 0 01-1.077.38 4.566 4.566 0 01-.468.023 2.316 2.316 0 01-.808-.138 1.944 1.944 0 01-.64-.388 1.79 1.79 0 01-.414-.588 1.954 1.954 0 01-.148-.77 2.03 2.03 0 01.145-.776 1.7 1.7 0 01.413-.588 1.92 1.92 0 01.641-.385c.274-.095.566-.142.859-.139.15 0 .298.011.445.033.13.02.258.05.382.094.112.038.22.088.32.147.099.058.192.123.28.194l-.155.23a.138.138 0 01-.052.05.154.154 0 01-.073.02.202.202 0 01-.1-.03 1.93 1.93 0 01-.156-.088 1.381 1.381 0 00-.215-.1 1.927 1.927 0 00-.295-.082 2.32 2.32 0 00-.407-.033 1.793 1.793 0 00-.618.103 1.34 1.34 0 00-.471.294c-.133.134-.235.29-.298.462a1.836 1.836 0 000 1.237c.07.175.179.334.32.468.132.127.291.227.468.294.204.064.42.09.635.073zM59.185 28.11h1.75v.424H58.65V24.82h.548l-.013 3.29zM62.755 28.534h-.548V24.82h.548v3.713zM64.794 24.839c.032.017.06.04.083.067l2.343 2.799a.913.913 0 010-.132v-2.767h.477v3.728h-.275a.246.246 0 01-.119-.02.311.311 0 01-.086-.071l-2.34-2.796v2.887h-.458v-3.713h.285a.24.24 0 01.09.018zM71.732 24.821v.409H69.79v1.226h1.574v.394H69.79v1.266h1.942v.41h-2.506V24.82h2.506zM14.303 1.893l24.335 6.338v22.208l-24.334-6.335V1.894zM12.743 0v25.183l27.453 7.152V7.155L12.743 0z" fill="#AFB1B8"/><path d="M27.456 44.025L0 36.867v-25.18l27.456 7.155v25.183z" fill="#AFB1B8"/><path d="M13.198 1.608l24.017 6.258-10.214 9.371-24.02-6.26 10.217-9.37zM12.743 0L0 11.688l27.456 7.154 12.74-11.687L12.743 0zM29.001 42.608l11.195-10.27-11.195-2.919v13.19z" fill="#AFB1B8"/></svg>
